src/assets/email-copy.svg

<?xml version="1.0" encoding="UTF-8"?><svg enable-background="new 0 0 210.107 210.107" version="1.1" viewBox="0 0 210.11 210.11" xml:space="preserve" xmlns="http://www.w3.org/2000/svg">	<path d="m168.51 0h-88.271c-12.822 0-23.254 10.432-23.254 23.254v2.854h-15.38c-12.822 0-23.254 10.432-23.254 23.254v137.49c0 12.822 10.432 23.254 23.254 23.254h88.271c12.822 0 23.253-10.432 23.253-23.254v-2.854h15.38c12.822 0 23.254-10.432 23.254-23.254v-137.49c1e-3 -12.822-10.431-23.254-23.253-23.254zm-30.38 186.85c0 4.551-3.703 8.254-8.253 8.254h-88.272c-4.551 0-8.254-3.703-8.254-8.254v-137.49c0-4.551 3.703-8.254 8.254-8.254h88.271c4.551 0 8.253 3.703 8.253 8.254v137.49zm38.634-26.108c0 4.551-3.703 8.254-8.254 8.254h-15.38v-119.64c0-12.822-10.432-23.254-23.253-23.254h-57.892v-2.854c0-4.551 3.703-8.254 8.254-8.254h88.271c4.551 0 8.254 3.703 8.254 8.254v137.49z" fill="#fff"/></svg>

<?xml version="1.0" encoding="iso-8859-1"?>
<svg version="1.1" id="Capa_1" xmlns="http://www.w3.org/2000/svg" xmlns:xlink="http://www.w3.org/1999/xlink" x="0px" y="0px"
	 viewBox="0 0 210.107 210.107" style="enable-background:new 0 0 210.107 210.107;" xml:space="preserve">
<g>
	<path style="fill:#ffffff;" d="M168.506,0H80.235C67.413,0,56.981,10.432,56.981,23.254v2.854h-15.38
		c-12.822,0-23.254,10.432-23.254,23.254v137.492c0,12.822,10.432,23.254,23.254,23.254h88.271
		c12.822,0,23.253-10.432,23.253-23.254V184h15.38c12.822,0,23.254-10.432,23.254-23.254V23.254C191.76,10.432,181.328,0,168.506,0z
		 M138.126,186.854c0,4.551-3.703,8.254-8.253,8.254H41.601c-4.551,0-8.254-3.703-8.254-8.254V49.361
		c0-4.551,3.703-8.254,8.254-8.254h88.271c4.551,0,8.253,3.703,8.253,8.254V186.854z M176.76,160.746
		c0,4.551-3.703,8.254-8.254,8.254h-15.38V49.361c0-12.822-10.432-23.254-23.253-23.254H71.981v-2.854
		c0-4.551,3.703-8.254,8.254-8.254h88.271c4.551,0,8.254,3.703,8.254,8.254V160.746z"/>
</g></svg>
